app/dist/common/images/titan-machinery.svg

<svg height="18" viewBox="0 0 18 18" width="18" xmlns="http://www.w3.org/2000/svg"><path d="m0 0h18v18h-18z" fill="#004b60"/><path d="m3.5 5h12.5l-1.5 8h-12.5z" fill="#dd2026"/><path d="m6.02 11h-1.2l.78-3h-1.6l.33-1h4.04l-.27 1h-1.34zm4.81-4 .17 2.53 1.34-2.53h1.97l-.98 4h-1.33l.85-3.08h-.02l-1.68 3.08h-1l-.14-3.08h-.01l-.8 3.08h-1.2l.98-4z" fill="#fff"/></svg>

<!-- by TradingView --><svg xmlns="http://www.w3.org/2000/svg" width="18" height="18" viewBox="0 0 18 18"><path fill="#004B60" d="M0 0h18v18H0z"/><path d="M3.5 5H16l-1.5 8H2l1.5-8Z" fill="#DD2026"/><path d="M6.02 11h-1.2l.78-3H4l.33-1h4.04L8.1 8H6.76l-.74 3ZM10.83 7 11 9.53 12.34 7h1.97l-.98 4h-1.33l.85-3.08h-.02L11.15 11h-1l-.14-3.08H10L9.2 11H8l.98-4h1.85Z" fill="#fff"/></svg>
